app/screens/openweather/static/images/wi-barometer.svg

<?xml version="1.0" encoding="utf-8"?>
<!-- Generator: Adobe Illustrator 22.0.1, SVG Export Plug-In . SVG Version: 6.00 Build 0)  -->
<svg version="1.1" id="Layer_1" xmlns="http://www.w3.org/2000/svg" xmlns:xlink="http://www.w3.org/1999/xlink" x="0px" y="0px"
	 viewBox="0 0 30 30" style="enable-background:new 0 0 30 30;" xml:space="preserve">
<path d="M7.69,13.2c0-0.99,0.19-1.94,0.58-2.85c0.39-0.91,0.91-1.68,1.57-2.33s1.44-1.17,2.34-1.56c0.9-0.39,1.85-0.58,2.84-0.58
	c0.99,0,1.94,0.19,2.85,0.58c0.9,0.39,1.68,0.91,2.33,1.56c0.65,0.65,1.17,1.43,1.56,2.33s0.58,1.85,0.58,2.85
	c0,1.62-0.48,3.06-1.44,4.34c-0.96,1.27-2.2,2.14-3.71,2.61v3.29h-4.24v-3.25c-1.54-0.45-2.81-1.32-3.79-2.61S7.69,14.83,7.69,13.2z
	 M9.3,13.2c0,1.55,0.56,2.88,1.69,3.99c1.11,1.12,2.45,1.68,4.02,1.68c1.03,0,1.99-0.25,2.86-0.76c0.88-0.51,1.57-1.2,2.09-2.07
	c0.51-0.87,0.77-1.82,0.77-2.85c0-0.77-0.15-1.5-0.45-2.21s-0.71-1.31-1.22-1.82c-0.51-0.51-1.12-0.92-1.83-1.22
	c-0.71-0.3-1.44-0.45-2.21-0.45c-0.77,0-1.5,0.15-2.21,0.45s-1.31,0.71-1.82,1.22c-0.51,0.51-0.92,1.12-1.22,1.82
	C9.45,11.7,9.3,12.43,9.3,13.2z M9.88,13.56v-0.72h2.17v0.72H9.88z M10.97,10.02l0.52-0.52l1.52,1.52l-0.52,0.53L10.97,10.02z
	 M13.5,14.95c0-0.42,0.15-0.78,0.44-1.09c0.29-0.31,0.65-0.47,1.06-0.48l2.73-4.49l0.66,0.35l-2.02,4.83
	c0.18,0.25,0.26,0.54,0.26,0.88c0,0.44-0.15,0.81-0.46,1.11c-0.31,0.3-0.68,0.45-1.12,0.45c-0.43,0-0.8-0.15-1.1-0.45
	C13.65,15.76,13.5,15.39,13.5,14.95z M14.81,10.28V8.12h0.69v2.17H14.81z M17.75,13.55v-0.74h2.17v0.74H17.75z"/>
</svg>

<?xml version="1.0" encoding="UTF-8" standalone="no"?>
<!-- Generator: Adobe Illustrator 22.0.1, SVG Export Plug-In . SVG Version: 6.00 Build 0)  -->

<svg
   version="1.1"
   id="Layer_1"
   x="0px"
   y="0px"
   viewBox="0 0 30 30"
   style="enable-background:new 0 0 30 30;"
   xml:space="preserve"
   sodipodi:docname="wi-barometer.svg"
   inkscape:version="1.4.3 (0d15f75, 2025-12-25)"
   xmlns:inkscape="http://www.inkscape.org/namespaces/inkscape"
   xmlns:sodipodi="http://sodipodi.sourceforge.net/DTD/sodipodi-0.dtd"
   xmlns="http://www.w3.org/2000/svg"
   xmlns:svg="http://www.w3.org/2000/svg"><defs
   id="defs1" /><sodipodi:namedview
   id="namedview1"
   pagecolor="#ffffff"
   bordercolor="#000000"
   borderopacity="0.25"
   inkscape:showpageshadow="2"
   inkscape:pageopacity="0.0"
   inkscape:pagecheckerboard="0"
   inkscape:deskcolor="#d1d1d1"
   inkscape:zoom="30.066667"
   inkscape:cx="15"
   inkscape:cy="14.98337"
   inkscape:window-width="1024"
   inkscape:window-height="1186"
   inkscape:window-x="2240"
   inkscape:window-y="25"
   inkscape:window-maximized="0"
   inkscape:current-layer="Layer_1" />
<path
   d="m 13.5,14.95 c 0,-0.42 0.15,-0.78 0.44,-1.09 0.29,-0.31 0.65,-0.47 1.06,-0.48 l 2.73,-4.49 0.66,0.35 -2.02,4.83 c 0.18,0.25 0.26,0.54 0.26,0.88 0,0.44 -0.15,0.81 -0.46,1.11 -0.31,0.3 -0.68,0.45 -1.12,0.45 -0.43,0 -0.8,-0.15 -1.1,-0.45 -0.3,-0.3 -0.45,-0.67 -0.45,-1.11 z"
   id="indicator"
   inkscape:label="indicator" /><path
   id="line"
   inkscape:label="line"
   d="m 9.88,13.56 v -0.72 h 2.17 v 0.72 z m 1.09,-3.54 0.52,-0.52 1.52,1.52 -0.52,0.53 z m 3.84,0.26 V 8.12 h 0.69 v 2.17 h -0.69 z m 2.94,3.27 v -0.74 h 2.17 v 0.74 z M 7.69,13.2 c 0,-0.99 0.19,-1.94 0.58,-2.85 0.39,-0.91 0.91,-1.68 1.57,-2.33 0.66,-0.65 1.44,-1.17 2.34,-1.56 0.9,-0.39 1.85,-0.58 2.84,-0.58 0.99,0 1.94,0.19 2.85,0.58 0.9,0.39 1.68,0.91 2.33,1.56 0.65,0.65 1.17,1.43 1.56,2.33 0.39,0.9 0.58,1.85 0.58,2.85 0,1.62 -0.48,3.06 -1.44,4.34 -0.96,1.27 -2.2,2.14 -3.71,2.61 v 3.29 H 12.95 V 20.19 C 11.41,19.74 10.14,18.87 9.16,17.58 8.18,16.29 7.69,14.83 7.69,13.2 Z m 1.61,0 c 0,1.55 0.56,2.88 1.69,3.99 1.11,1.12 2.45,1.68 4.02,1.68 1.03,0 1.99,-0.25 2.86,-0.76 0.88,-0.51 1.57,-1.2 2.09,-2.07 0.51,-0.87 0.77,-1.82 0.77,-2.85 0,-0.77 -0.15,-1.5 -0.45,-2.21 C 19.98,10.27 19.57,9.67 19.06,9.16 18.55,8.65 17.94,8.24 17.23,7.94 16.52,7.64 15.79,7.49 15.02,7.49 14.25,7.49 13.52,7.64 12.81,7.94 12.1,8.24 11.5,8.65 10.99,9.16 10.48,9.67 10.07,10.28 9.77,10.98 9.45,11.7 9.3,12.43 9.3,13.2 Z" />
</svg>
